X: 66
T:Paddy Fahys reel (number 15)
M:4/4
L:1/8
C:Paddy Fahy
K:G
 G,2B,D GBdB | ~c2ag fgdc | BG (3GGG BcdB | cdAG (3FED CA, |!
 G,2B,D  GBdB  | ~c2ag fgdc | 
BG (3GGG BcdB | cAFA G2Bd :||!
 ~g2fa gdBG | FGAB ~c2dc | Aaag a3 g | fdad bdad |!
 ~g2fa gdBG | FGAB ~c2Bc | dggf defd |1 cAFA G2Bd :|
 |2 cAFA G2 z2 ||
